src/4-icons/type.svg

<svg width="260" height="260" viewBox="0 0 260 260" fill="none" xmlns="http://www.w3.org/2000/svg">
<path d="M151.953 9.99609H109.759V52.1899H151.953V9.99609Z" stroke="black" stroke-width="7" stroke-linecap="round" stroke-linejoin="round"/>
<path d="M151.953 52.1899H109.759V94.3837H151.953V52.1899Z" stroke="black" stroke-width="7" stroke-linecap="round" stroke-linejoin="round"/>
<path d="M151.953 94.3838H109.759V136.578H151.953V94.3838Z" stroke="black" stroke-width="7" stroke-linecap="round" stroke-linejoin="round"/>
<path d="M133.5 235.13L134.609 215.607C114.347 201.183 111.618 185.669 108.619 169.275L108.249 167.206C108.08 166.206 107.91 165.287 107.73 164.307C105.66 153.041 103.511 137.767 104.981 128.931C105.171 127.821 105.74 124.462 118.476 105.66L118.655 105.39L118.735 105.29C120.126 103.471 121.917 101.997 123.97 100.983C126.023 99.9689 128.281 99.4416 130.571 99.4421C131.514 99.4413 132.454 99.5317 133.38 99.712L134.519 43.8835C134.53 39.1379 136.425 34.5909 139.788 31.2428C143.152 27.8947 147.707 26.0197 152.452 26.0303C157.198 26.0409 161.745 27.9363 165.093 31.2994C168.441 34.6625 170.316 39.2179 170.306 43.9634L171.005 89.4959C174.547 88.1697 178.4 87.9098 182.088 88.7483C185.776 89.5868 189.137 91.4869 191.757 94.2141C194.912 91.8946 198.727 90.6473 202.643 90.6555H202.823C206.192 90.6736 209.491 91.6151 212.362 93.3775C215.233 95.1399 217.566 97.6559 219.107 100.652C221.56 99.3346 224.281 98.5936 227.063 98.4849C229.845 98.3761 232.615 98.9024 235.163 100.024C237.712 101.145 239.971 102.832 241.77 104.957C243.569 107.082 244.861 109.589 245.547 112.287L245.627 112.577C247.546 120.144 247.626 120.384 248.206 125.222V125.332C248.336 126.332 248.486 127.561 248.695 129.141C248.709 129.307 248.709 129.474 248.695 129.64C251.604 176.103 250.205 198.994 234.011 218.736V235.12L133.5 235.13Z" fill="white"/>
<path d="M152.462 28.8487C156.495 28.866 160.361 30.458 163.237 33.2851C166.113 36.1123 167.771 39.951 167.857 43.9828L168.616 93.4938C172.245 91.1224 176.647 90.2378 180.91 91.0231C185.174 91.8084 188.972 94.2034 191.517 97.7122C194.496 94.776 198.511 93.1312 202.693 93.1339H202.853C206.242 93.1606 209.535 94.2631 212.257 96.2825C214.979 98.302 216.989 101.134 217.997 104.37C220.075 102.727 222.531 101.632 225.141 101.183C227.752 100.734 230.433 100.946 232.94 101.8C235.447 102.654 237.7 104.122 239.494 106.071C241.287 108.02 242.564 110.387 243.208 112.956L243.297 113.286C245.187 120.713 245.217 120.863 245.807 125.581C245.936 126.581 246.096 127.871 246.316 129.52C246.321 129.61 246.321 129.7 246.316 129.79C249.315 177.362 247.666 198.763 231.622 217.886V232.67H136.149L137.148 214.397C116.156 199.943 113.887 184.509 110.848 167.495C110.639 166.316 110.429 165.116 110.199 163.887C108.539 154.89 105.97 138.337 107.46 129.38C108.01 126.141 114.897 115.455 120.585 107.059C120.628 106.99 120.675 106.923 120.725 106.859C121.883 105.344 123.375 104.116 125.084 103.27C126.793 102.424 128.674 101.983 130.581 101.981C132.112 101.982 133.629 102.264 135.059 102.81L135.829 103.13L137.068 43.9828C137.172 39.9614 138.837 36.1383 141.71 33.3228C144.584 30.5074 148.44 28.9207 152.462 28.8986V28.8487ZM152.462 23.9006C147.131 23.9275 142.02 26.0301 138.213 29.7624C134.406 33.4947 132.203 38.5632 132.07 43.8929L130.991 96.9625H130.621C127.949 96.9593 125.312 97.5728 122.916 98.7552C120.52 99.9377 118.429 101.657 116.806 103.78L116.746 103.86V103.93C116.676 104.03 116.576 104.16 116.476 104.32C103.481 123.532 102.872 127.031 102.622 128.52C101.082 137.737 103.271 153.321 105.371 164.766C105.55 165.766 105.72 166.696 105.88 167.625L106.01 168.355L106.26 169.734C109.079 185.618 111.998 202.022 132.09 216.846L131.201 232.37L130.901 237.648H236.67V232.65V219.655C252.854 199.443 254.273 176.152 251.354 129.56C251.354 129.3 251.354 129.09 251.354 128.96V128.85C251.164 127.401 251.015 126.251 250.895 125.312V124.942C250.275 120.004 250.205 119.644 248.266 112.047V111.957L248.186 111.667C247.457 108.785 246.121 106.093 244.266 103.77C242.412 101.448 240.081 99.549 237.432 98.2016C234.783 96.8542 231.876 96.0894 228.906 95.9584C225.937 95.8274 222.974 96.3334 220.216 97.4423C218.311 94.6052 215.741 92.2763 212.731 90.6579C209.721 89.0396 206.361 88.1807 202.943 88.1559H202.743C199.01 88.1471 195.344 89.1414 192.127 91.0347C188.16 87.6473 183.119 85.7802 177.903 85.7668C176.439 85.7687 174.98 85.9126 173.544 86.1966L172.905 43.9229C172.795 38.5784 170.602 33.4882 166.792 29.7383C162.982 25.9883 157.858 23.8755 152.512 23.8506L152.462 23.9006Z" fill="white"/>
<path d="M139.157 147.393V114.456C139.166 112.723 138.645 111.028 137.664 109.599C136.684 108.17 135.29 107.074 133.669 106.459C131.965 105.811 130.098 105.729 128.344 106.226C126.59 106.723 125.043 107.773 123.933 109.218C123.933 109.218 111.937 126.891 111.448 129.95C110.258 137.067 111.888 150.672 114.167 163.077C117.655 182.07 118.425 197.204 141.286 212.248L139.147 253.003" fill="white"/>
<path d="M139.157 147.393V114.456C139.166 112.723 138.645 111.028 137.664 109.599C136.684 108.17 135.29 107.074 133.669 106.459V106.459C131.965 105.811 130.098 105.729 128.344 106.226C126.59 106.723 125.043 107.773 123.933 109.218C123.933 109.218 111.937 126.891 111.448 129.95C110.258 137.067 111.888 150.672 114.167 163.077C117.655 182.07 118.425 197.204 141.286 212.248L139.147 253.003" stroke="black" stroke-width="8" stroke-linecap="round" stroke-linejoin="round"/>
<path d="M227.713 253.003L227.603 216.377C243.727 197.844 245.256 177.002 242.318 130C241.148 121.163 241.688 123.263 239.379 114.226L239.299 113.906C238.655 111.348 237.175 109.079 235.094 107.458C233.013 105.837 230.451 104.958 227.813 104.96C226.154 104.961 224.514 105.31 222.998 105.985C221.482 106.66 220.125 107.645 219.014 108.878C217.903 110.11 217.063 111.562 216.549 113.139C216.035 114.717 215.857 116.384 216.028 118.035L215.688 117.835L215.118 112.357L214.658 107.889C214.349 104.958 212.971 102.243 210.788 100.263C208.605 98.2829 205.77 97.1757 202.823 97.1527C201.238 97.1382 199.667 97.4377 198.199 98.034C196.73 98.6303 195.395 99.5116 194.27 100.627C193.144 101.742 192.251 103.07 191.641 104.532C191.031 105.995 190.717 107.564 190.717 109.148V115.955V107.619C190.709 104.21 189.351 100.943 186.94 98.534C184.529 96.1246 181.261 94.7689 177.852 94.7636C176.159 94.7623 174.481 95.0949 172.916 95.7425C171.351 96.3901 169.929 97.3399 168.731 98.5375C167.534 99.7352 166.584 101.157 165.936 102.722C165.289 104.287 164.956 105.965 164.957 107.659V115.955L163.858 44.0531C163.81 41.0621 162.589 38.2096 160.457 36.1112C158.325 34.0129 155.453 32.837 152.462 32.8374C149.482 32.8341 146.619 33.9995 144.488 36.0834C142.358 38.1673 141.129 41.0035 141.066 43.9831L139.157 138.267V147.363" fill="white"/>
<path d="M227.713 253.003L227.603 216.377C243.727 197.844 245.256 177.002 242.318 130C241.148 121.163 241.688 123.263 239.379 114.226L239.299 113.906C238.655 111.348 237.175 109.079 235.094 107.458C233.013 105.837 230.451 104.958 227.813 104.96V104.96C226.154 104.961 224.514 105.31 222.998 105.985C221.482 106.66 220.125 107.645 219.014 108.878C217.903 110.11 217.064 111.562 216.549 113.139C216.035 114.717 215.857 116.384 216.028 118.035V118.035L215.688 117.835L215.118 112.357L214.658 107.889C214.349 104.958 212.971 102.243 210.788 100.263C208.605 98.2829 205.77 97.1757 202.823 97.1527V97.1527C201.238 97.1381 199.667 97.4377 198.199 98.034C196.73 98.6303 195.395 99.5116 194.27 100.627C193.144 101.742 192.251 103.07 191.641 104.532C191.031 105.995 190.717 107.564 190.717 109.148V115.955V107.619C190.709 104.21 189.351 100.943 186.94 98.534C184.529 96.1246 181.261 94.7689 177.852 94.7636V94.7636C176.159 94.7623 174.481 95.0949 172.916 95.7425C171.351 96.3901 169.929 97.3398 168.731 98.5375C167.534 99.7352 166.584 101.157 165.936 102.722C165.289 104.287 164.956 105.965 164.957 107.659V115.955L163.858 44.0531C163.81 41.0621 162.589 38.2096 160.457 36.1112C158.325 34.0129 155.453 32.837 152.462 32.8374C149.482 32.8341 146.619 33.9995 144.488 36.0834C142.358 38.1673 141.129 41.0035 141.066 43.9831L139.157 138.267V147.363" stroke="black" stroke-width="8" stroke-linecap="round" stroke-linejoin="round"/>
<path d="M67.5649 9.99609H25.3711V52.1899H67.5649V9.99609Z" stroke="black" stroke-width="7" stroke-linecap="round" stroke-linejoin="round"/>
<path d="M109.759 9.99609H67.5649V52.1899H109.759V9.99609Z" stroke="black" stroke-width="7" stroke-linecap="round" stroke-linejoin="round"/>
<path d="M67.5649 52.1899H25.3711V94.3837H67.5649V52.1899Z" stroke="black" stroke-width="7" stroke-linecap="round" stroke-linejoin="round"/>
<path d="M109.759 52.1899H67.5649V94.3837H109.759V52.1899Z" stroke="black" stroke-width="7" stroke-linecap="round" stroke-linejoin="round"/>
<path d="M67.5649 94.3838H25.3711V136.578H67.5649V94.3838Z" stroke="black" stroke-width="7" stroke-linecap="round" stroke-linejoin="round"/>
<path d="M109.759 94.3838H67.5649V136.578H109.759V94.3838Z" stroke="black" stroke-width="7" stroke-linecap="round" stroke-linejoin="round"/>
</svg>

<svg width="260" height="260" fill="none" xmlns="http://www.w3.org/2000/svg"><path d="M151.953 9.996h-42.194V52.19h42.194V9.996Zm0 42.194h-42.194v42.194h42.194V52.19Zm0 42.194h-42.194v42.194h42.194V94.384Z" stroke="#000" stroke-width="7" stroke-linecap="round" stroke-linejoin="round"/><path d="m133.5 235.13 1.109-19.523c-20.262-14.424-22.991-29.938-25.99-46.332l-.37-2.069c-.169-1-.339-1.919-.519-2.899-2.07-11.266-4.219-26.54-2.749-35.376.19-1.11.759-4.469 13.495-23.271l.179-.27.08-.1a14.893 14.893 0 0 1 14.645-5.578l1.139-55.829a17.895 17.895 0 0 1 17.933-17.853 17.893 17.893 0 0 1 17.854 17.933l.699 45.533a19.364 19.364 0 0 1 20.752 4.718 18.313 18.313 0 0 1 10.886-3.558h.18a18.422 18.422 0 0 1 16.284 9.996 18.328 18.328 0 0 1 22.663 4.305 18.34 18.34 0 0 1 3.777 7.33l.08.29c1.919 7.567 1.999 7.807 2.579 12.645v.11c.13 1 .28 2.229.489 3.809a2.97 2.97 0 0 1 0 .499c2.909 46.463 1.51 69.354-14.684 89.096v16.384l-100.511.01Z" fill="#fff"/><path d="M152.462 28.849a15.465 15.465 0 0 1 15.395 15.134l.759 49.51a16.883 16.883 0 0 1 22.901 4.22 15.906 15.906 0 0 1 11.176-4.58h.16a15.995 15.995 0 0 1 15.144 11.237 15.85 15.85 0 0 1 14.943-2.57 15.856 15.856 0 0 1 10.268 11.156l.089.33c1.89 7.427 1.92 7.577 2.51 12.295.129 1 .289 2.29.509 3.939.005.09.005.18 0 .27 2.999 47.572 1.35 68.973-14.694 88.096v14.784h-95.473l.999-18.273c-20.992-14.454-23.261-29.888-26.3-46.902-.209-1.179-.419-2.379-.649-3.608-1.66-8.997-4.229-25.55-2.739-34.507.55-3.239 7.437-13.925 13.125-22.321.043-.069.09-.136.14-.2a12.424 12.424 0 0 1 14.334-4.049l.77.32 1.239-59.147a15.486 15.486 0 0 1 15.394-15.084v-.05Zm0-4.948a20.502 20.502 0 0 0-20.392 19.992l-1.079 53.07h-.37a17.365 17.365 0 0 0-13.815 6.817l-.06.08v.07c-.07.1-.17.23-.27.39-12.995 19.212-13.604 22.711-13.854 24.2-1.54 9.217.649 24.801 2.749 36.246.179 1 .349 1.93.509 2.859l.13.73.25 1.379c2.819 15.884 5.738 32.288 25.83 47.112l-.889 15.524-.3 5.278H236.67v-17.993c16.184-20.212 17.603-43.503 14.684-90.095v-.71c-.19-1.449-.339-2.599-.459-3.538v-.37c-.62-4.938-.69-5.298-2.629-12.895v-.09l-.08-.29a20.846 20.846 0 0 0-10.754-13.465 20.83 20.83 0 0 0-17.216-.76 20.987 20.987 0 0 0-17.273-9.286h-.2a20.832 20.832 0 0 0-10.616 2.879 21.99 21.99 0 0 0-14.224-5.268 22.612 22.612 0 0 0-4.359.43l-.639-42.274a20.493 20.493 0 0 0-20.393-20.072l-.05.05Z" fill="#fff"/><path d="M139.157 147.393v-32.937a8.505 8.505 0 0 0-5.488-7.997 8.478 8.478 0 0 0-9.736 2.759s-11.996 17.673-12.485 20.732c-1.19 7.117.44 20.722 2.719 33.127 3.488 18.993 4.258 34.127 27.119 49.171l-2.139 40.755" fill="#fff"/><path d="M139.157 147.393v-32.937a8.505 8.505 0 0 0-5.488-7.997v0a8.478 8.478 0 0 0-9.736 2.759s-11.996 17.673-12.485 20.732c-1.19 7.117.44 20.722 2.719 33.127 3.488 18.993 4.258 34.127 27.119 49.171l-2.139 40.755" stroke="#000" stroke-width="8" stroke-linecap="round" stroke-linejoin="round"/><path d="m227.713 253.003-.11-36.626c16.124-18.533 17.653-39.375 14.715-86.377-1.17-8.837-.63-6.737-2.939-15.774l-.08-.32a11.836 11.836 0 0 0-16.301-7.921 11.849 11.849 0 0 0-6.449 7.154 11.86 11.86 0 0 0-.521 4.896l-.34-.2-.57-5.478-.46-4.468a11.994 11.994 0 0 0-11.835-10.736 11.993 11.993 0 0 0-11.182 7.379 11.995 11.995 0 0 0-.924 4.616v6.807-8.336a12.885 12.885 0 0 0-12.865-12.855 12.886 12.886 0 0 0-12.895 12.895v8.296l-1.099-71.902a11.4 11.4 0 0 0-19.37-7.97 11.39 11.39 0 0 0-3.422 7.9l-1.909 94.284v9.096" fill="#fff"/><path d="m227.713 253.003-.11-36.626c16.124-18.533 17.653-39.375 14.715-86.377-1.17-8.837-.63-6.737-2.939-15.774l-.08-.32a11.836 11.836 0 0 0-11.486-8.946v0a11.854 11.854 0 0 0-11.785 13.075v0l-.34-.2-.57-5.478-.46-4.468a11.994 11.994 0 0 0-11.835-10.736v0a11.991 11.991 0 0 0-11.182 7.379 11.995 11.995 0 0 0-.924 4.616v6.807-8.336a12.885 12.885 0 0 0-12.865-12.855v0a12.886 12.886 0 0 0-12.895 12.895v8.296l-1.099-71.902a11.4 11.4 0 0 0-19.37-7.97 11.39 11.39 0 0 0-3.422 7.9l-1.909 94.284v9.096" stroke="#000" stroke-width="8" stroke-linecap="round" stroke-linejoin="round"/><path d="M67.565 9.996H25.37V52.19h42.194V9.996Zm42.194 0H67.565V52.19h42.194V9.996ZM67.565 52.19H25.37v42.194h42.194V52.19Zm42.194 0H67.565v42.194h42.194V52.19ZM67.565 94.384H25.37v42.194h42.194V94.384Zm42.194 0H67.565v42.194h42.194V94.384Z" stroke="#000" stroke-width="7" stroke-linecap="round" stroke-linejoin="round"/></svg>
